X:42
T:Quick Step. JBs.042
S:Jas.Blackshaw MS, 1837, N.Shropshire
Z:Tony Weatherall 2006
M:2/4
L:1/8
Q:1/4=100
A:North Shropshire
R:Country Dance
K:C
cGGe|dcca|gedc|B/c/d/e/ d2|cGGe|dcca|ge d/c/d/e/|c2c2:|!
|:g>a ge|dcca|gedc|B/c/d/e/d2|g>a ge|dcca|ge d/c/d/e/|c2c2:|

